X:1
T:Far, Far, over the Sea
T:Far, Far, over the Sea
T:Edmund Simon Lorenz
T:Edmund Simon Lorenz, 1880
T:Public Domain Courtesy of the Cyber Hymnal™
T:Public Domain Courtesy of the Cyber Hymnal™
C:Edmund Simon Lorenz
Z:Public Domain
Z:Courtesy of the Cyber Hymnal™
%%score ( 1 2 ) ( 3 4 )
L:1/8
Q:1/4=98
M:4/4
K:Eb
V:1 treble 
V:2 treble 
V:3 bass 
V:4 bass 
V:1
 [GB]3 [EG]3 | [DF][EG][FA] [EG]3 | [CF]2 [CE] [A,C]2 [EA] | [EA]2 [EG] [EG]3 | [GB]3 [EG]3 | %5
w: 1.~Far, far,|o- ver the sea,|Na- tions wait in|ag- o- ny;|Come, come,|
w: 2.~Far, far,|o- ver the sea,|Souls la- ment sin’s|tyr- an- ny;|Fly, fly,|
w: 3.~Far, far,|o- ver the sea,|Bring sweet an- swer|to their plea;|Ring, ring,|
 F[=EG][FA] [EG]3 | [FA]2 [FA] [EB]2 [FA] | [EG]2 [DF] E2 z | [DF]2 [DF] [EG]2 [DF] | %9
w: o- ver the sea,|Bring the light, let|dark- ness flee.|Dark the sha- dows|
w: o- ver the sea,|Bring the Gos- pel,|set them free.|Chained by sin in|
w: o- ver the sea,|Loud the notes of|Ju- bi- lee.|Gos- pel light brings|
 [FB]2 [Fc] [Fd]2 z | [Ge]2 [Fd] [Fc]2 F | [Fd]2 [Ec] [DB]2 z | [DF]2 [DF] [EG]2 [DF] | %13
w: round them fall,|Gloom and hor- ror|co- ver all;|Vain- ly grope their|
w: dun- geons vile,|Scourged by pas- sions|fierce the while;|Vexed by su- per-|
w: full re- lease,|Cries of pain shall|end in peace;|Prayer and song shall|
 [FB]2 [Fc] [Fd]2 z | [Ge]2 [Fd] [Fc]2 F | [Fd]2 [Ec] [DB]2 z ||"^Refrain" [GB]3 [EG]3 | %17
w: souls for light,|Hope ne’er cheers their|ray- less night.||
w: sti- tion’s blight,|Vain their trust in|e- vil rite.|Far, far,|
w: soon re- sound|All the joy- ous|earth a- round.||
 [DF][EG][FA] [EG]3 | [CF]2 [CE] [A,C]2 [EA] | [EA]2 [EG] [EG]3 | [GB]3 [EG]3 | F[=EG][FA] [EG]3 | %22
w: |||||
w: o- ver the sea,|Na- tions wait in|ag- o- ny;|Come, come,|o- ver the sea,|
w: |||||
 [FA]2 [FA] [EB]2 [FA] | [EG]2 [DF] E2 z |] %24
w: ||
w: Bring the light, let|dark- ness flee.|
w: ||
V:2
 x6 | x6 | x6 | x6 | x6 | F x5 | x6 | x3 E2 x | x6 | x6 | x5 F | x6 | x6 | x6 | x5 F | x6 || x6 | %17
 x6 | x6 | x6 | x6 | F x5 | x6 | x3 E2 x |] %24
V:3
 [E,B,]3 [E,B,]3 | [B,,B,][B,,B,][B,,B,] [E,B,]3 | [A,,A,]2 [A,,A,] [A,,E,]2 [A,,C] | %3
 [E,C]2 [E,B,] [E,B,]3 | [E,E]3 [E,B,]3 | [A,C][G,C][F,C] [C,C]3 | [F,C]2 [F,C] [G,B,]2 [A,C] | %7
 B,2 [B,,A,] [E,G,]2 z | [B,,B,]2 [B,,B,] [B,,B,]2 [B,,B,] | [D,B,]2 [F,=A,] B,2 z | %10
 B,2 B, [F,=A,]2 [F,A,] | [F,B,]2 [F,=A,] [B,,B,]2 z | [B,,B,]2 [B,,B,] [B,,B,]2 [B,,B,] | %13
 [D,B,]2 [F,=A,] B,2 z | B,2 B, [F,=A,]2 [F,A,] | [F,B,]2 [F,=A,] [B,,B,]2 z || [E,B,]3 [E,B,]3 | %17
 [B,,B,][B,,B,][B,,B,] [E,B,]3 | [A,,A,]2 [A,,A,] [A,,E,]2 [A,,C] | [E,C]2 [E,B,] [E,B,]3 | %20
 [E,E]3 [E,B,]3 | [A,C][G,C][F,C] [C,C]3 | [F,C]2 [F,C] [G,B,]2 [A,C] | B,2 [B,,A,] [E,G,]2 z |] %24
V:4
 x6 | x6 | x6 | x6 | x6 | x6 | x6 | B,2 x4 | x6 | x3 B,2 x | B,2 B, x3 | x6 | x6 | x3 B,2 x | %14
 B,2 B, x3 | x6 || x6 | x6 | x6 | x6 | x6 | x6 | x6 | B,2 x4 |] %24

